X:31
T:RVW2/2/31 The Irish Girl
C:Mr. and Mrs. Ratford, Ingrave, Essex, 15 April 1904
L:1/4
Q:1/4=110
M:4/4
I:linebreak $
K:G
"^(Editorial suggestion)  " d | c B A G | g g a3/2 g/4f/4 | e e e/d/B/c/ | d3 :| d |$ c B A G | 
g g a3/2 g/4f/4 | e e e/d/B/c/ | d3 || c |$ g3/2 G/ B d | g3/2 d/ f e | d3/2 A/ G F | G3 |] 



